icons/svg/cellphone-settings.svg

<svg xmlns="http://www.w3.org/2000/svg" version="1.1" baseProfile="full" width="24" height="24" viewBox="0 0 24.00 24.00" xml:space="preserve"><path fill="#000" fill-opacity="1" stroke-linejoin="round" d="M16 16H8V4h8m0-3.99L8 0C6.9 0 6 .9 6 2v16c0 1.1.9 2 2 2h8c1.1 0 2-.9 2-2V2c0-1.1-.9-1.99-2-1.99zM15 24h2v-2h-2m-4 2h2v-2h-2m-4 2h2v-2H7v2z"/></svg>

﻿<?xml version="1.0" encoding="utf-8"?>
<!DOCTYPE svg PUBLIC "-//W3C//DTD SVG 1.1//EN" "http://www.w3.org/Graphics/SVG/1.1/DTD/svg11.dtd">
<svg xmlns="http://www.w3.org/2000/svg" xmlns:xlink="http://www.w3.org/1999/xlink" version="1.1" baseProfile="full" width="24" height="24" viewBox="0 0 24.00 24.00" enable-background="new 0 0 24.00 24.00" xml:space="preserve">
	<path fill="#000000" fill-opacity="1" stroke-linejoin="round" d="M 16,16L 8,16L 8,4L 16,4M 16,0.0100021L 8,1.90735e-006C 6.9,1.90735e-006 6,0.900002 6,2L 6,18C 6,19.1 6.9,20 8,20L 16,20C 17.1,20 18,19.1 18,18L 18,2C 18,0.900002 17.1,0.0100021 16,0.0100021 Z M 15,24L 17,24L 17,22L 15,22M 11,24L 13,24L 13,22L 11,22M 7,24L 9,24L 9,22L 7,22L 7,24 Z "/>
</svg>
